X: 13950
T: Frana
R: waltz
M: 3/4
K: Adorian
|:"Am" e2ce ce|"G" d2Bd Bd|"F"c2B2A2|"E"B6|
"Am"e2ce ce|"G"d2Bd Bd|"F"c2 "Em"B2G2|"Am"A6:|
|:"Am"e2ce ce|"C"g2 a2 g2|"D"f2 e2 f2|"Bm"d6|
"D"f2 g2 f2|"C"e2 d2 e2|"G"c2 d2 B2|1 "Am" c6:|2 "Am" A6||

